wp-content/uploads/2019/10/Electron_logo.svg

<svg width="495" height="74" viewBox="0 0 495 74" fill="none" xmlns="http://www.w3.org/2000/svg">
<g clip-path="url(#clip0_282_179)">
<mask id="mask0_282_179" style="mask-type:luminance" maskUnits="userSpaceOnUse" x="-11" y="-15" width="517" height="100">
<path d="M505.3 -14.2998H-10.7V85.0002H505.3V-14.2998Z" fill="white"/>
</mask>
<g mask="url(#mask0_282_179)">
<mask id="mask1_282_179" style="mask-type:luminance" maskUnits="userSpaceOnUse" x="-24" y="-22" width="535" height="135">
<path d="M510.4 -22H-23.1V112.1H510.4V-22Z" fill="white"/>
</mask>
<g mask="url(#mask1_282_179)">
<path d="M458.8 73.5002C478.9 73.5002 495.2 57.2002 495.2 37.1002C495.2 17.0002 478.9 0.700195 458.8 0.700195C438.7 0.700195 422.4 17.0002 422.4 37.1002C422.5 57.2002 438.7 73.5002 458.8 73.5002Z" fill="#DF0A15"/>
</g>
</g>
<mask id="mask2_282_179" style="mask-type:luminance" maskUnits="userSpaceOnUse" x="-11" y="-15" width="517" height="100">
<path d="M505.3 -14.2998H-10.7V85.0002H505.3V-14.2998Z" fill="white"/>
</mask>
<g mask="url(#mask2_282_179)">
<path d="M-0.199951 14.0996H37.8V23.8996H14V31.1996H36.1V40.5996H14V49.6996H38.5V60.0996H-0.199951V14.0996Z" fill="#0060AB"/>
<path d="M44.2001 14.0996H58.4001V48.6996H80.5001V59.9996H44.2001V14.0996Z" fill="#0060AB"/>
<path d="M85.1001 14.0996H123.1V23.8996H99.3001V31.1996H121.4V40.5996H99.3001V49.6996H123.8V60.0996H85.1001V14.0996Z" fill="#0060AB"/>
<path d="M160.1 41.2994L172.5 45.0994C171.7 48.5994 170.3 51.4994 168.6 53.7994C166.8 56.0994 164.6 57.8994 161.9 59.0994C159.2 60.2994 155.8 60.8994 151.7 60.8994C146.7 60.8994 142.6 60.1994 139.5 58.6994C136.3 57.1994 133.6 54.6994 131.3 50.9994C129 47.2994 127.9 42.6994 127.9 36.9994C127.9 29.3994 129.9 23.5994 134 19.4994C138 15.3994 143.8 13.3994 151.1 13.3994C156.9 13.3994 161.4 14.5994 164.7 16.8994C168 19.1994 170.5 22.7994 172.1 27.6994L159.6 30.4994C159.2 29.0994 158.7 28.0994 158.2 27.3994C157.4 26.2994 156.4 25.4994 155.3 24.8994C154.2 24.2994 152.9 23.9994 151.4 23.9994C148.2 23.9994 145.7 25.2994 144 27.8994C142.7 29.7994 142.1 32.7994 142.1 36.8994C142.1 41.9994 142.9 45.4994 144.4 47.3994C145.9 49.2994 148.1 50.1994 150.9 50.1994C153.6 50.1994 155.7 49.3994 157.1 47.8994C158.5 46.3994 159.5 44.1994 160.1 41.2994Z" fill="#0060AB"/>
<path d="M174.3 14.0996H217.4V25.3996H203V59.9996H188.8V25.4996H174.3V14.0996Z" fill="#0060AB"/>
<path d="M222.1 60.0996V14.0996H245.7C250.1 14.0996 253.4 14.4996 255.8 15.1996C258.1 15.9996 260 17.2996 261.4 19.3996C262.8 21.3996 263.5 23.8996 263.5 26.7996C263.5 29.2996 263 31.4996 261.9 33.3996C260.8 35.1996 259.3 36.6996 257.4 37.8996C256.2 38.5996 254.5 39.1996 252.4 39.6996C254.1 40.2996 255.3 40.7996 256.1 41.3996C256.6 41.7996 257.4 42.5996 258.4 43.7996C259.4 44.9996 260.1 45.9996 260.4 46.6996L267.3 59.9996H251.3L243.7 45.9996C242.7 44.1996 241.9 42.9996 241.1 42.4996C240.1 41.7996 238.9 41.3996 237.6 41.3996H236.3V59.9996H222.1V60.0996ZM236.4 32.6996H242.4C243 32.6996 244.3 32.4996 246.2 32.0996C247.1 31.8996 247.9 31.3996 248.5 30.6996C249.1 29.8996 249.4 28.9996 249.4 27.9996C249.4 26.4996 248.9 25.3996 248 24.5996C247.1 23.7996 245.3 23.3996 242.7 23.3996H236.5V32.6996H236.4Z" fill="#0060AB"/>
<path d="M267.1 37.0998C267.1 29.5998 269.2 23.7998 273.4 19.5998C277.6 15.3998 283.4 13.2998 290.8 13.2998C298.4 13.2998 304.3 15.3998 308.5 19.4998C312.6 23.5998 314.7 29.3998 314.7 36.6998C314.7 42.0998 313.8 46.4998 312 49.8998C310.2 53.2998 307.6 55.9998 304.2 57.8998C300.8 59.7998 296.5 60.7998 291.4 60.7998C286.2 60.7998 281.9 59.9998 278.5 58.2998C275.1 56.6998 272.4 53.9998 270.2 50.4998C268.2 46.9998 267.1 42.4998 267.1 37.0998ZM281.3 37.1998C281.3 41.7998 282.2 45.1998 283.9 47.1998C285.6 49.1998 288 50.1998 290.9 50.1998C293.9 50.1998 296.3 49.1998 298 47.1998C299.7 45.1998 300.5 41.6998 300.5 36.4998C300.5 32.1998 299.6 28.9998 297.9 26.9998C296.2 24.9998 293.8 23.9998 290.8 23.9998C287.9 23.9998 285.6 24.9998 283.9 26.9998C282.2 29.1998 281.3 32.4998 281.3 37.1998Z" fill="#0060AB"/>
<path d="M320.5 14.0996H333.7L351 39.4996V14.0996H364.4V59.9996H351L333.8 34.7996V59.9996H320.5V14.0996Z" fill="#0060AB"/>
</g>
<mask id="mask3_282_179" style="mask-type:luminance" maskUnits="userSpaceOnUse" x="-11" y="-15" width="517" height="100">
<path d="M505.3 -14.2998H-10.7V85.0002H505.3V-14.2998Z" fill="white"/>
</mask>
<g mask="url(#mask3_282_179)">
<path d="M380.265 39.2604H413.088V46.2135H380.265V39.2604Z" fill="#0060AB"/>
</g>
<path d="M459.781 43.369V33.8164H481.705V53.3915C477.508 56.252 473.791 58.2043 470.555 59.2483C467.339 60.2714 463.518 60.783 459.092 60.783C453.642 60.783 449.195 59.8538 445.75 57.9955C442.325 56.1372 439.663 53.3706 437.763 49.6957C435.884 46.0208 434.944 41.803 434.944 37.0424C434.944 32.0312 435.978 27.6777 438.045 23.9819C440.112 20.2653 443.14 17.4465 447.128 15.5255C450.239 14.043 454.425 13.3018 459.687 13.3018C464.761 13.3018 468.551 13.7611 471.056 14.6799C473.583 15.5986 475.671 17.0289 477.32 18.9707C478.991 20.8917 480.243 23.3346 481.079 26.2996L467.392 28.7426C466.828 27.0095 465.867 25.6836 464.51 24.7649C463.174 23.8462 461.462 23.3868 459.374 23.3868C456.263 23.3868 453.778 24.4726 451.92 26.6441C450.082 28.7948 449.163 32.2087 449.163 36.8858C449.163 41.8552 450.093 45.4048 451.951 47.5346C453.83 49.6644 456.44 50.7293 459.781 50.7293C461.368 50.7293 462.882 50.4996 464.322 50.0402C465.763 49.5809 467.413 48.7979 469.271 47.6912V43.369H459.781Z" fill="white"/>
</g>
<defs>
<clipPath id="clip0_282_179">
<rect width="495" height="73.5" fill="white"/>
</clipPath>
</defs>
</svg>

<?xml version="1.0" encoding="UTF-8"?> <!-- Generator: Adobe Illustrator 22.0.1, SVG Export Plug-In . SVG Version: 6.00 Build 0) --> <svg xmlns="http://www.w3.org/2000/svg" xmlns:xlink="http://www.w3.org/1999/xlink" id="Слой_1" x="0px" y="0px" viewBox="0 0 495 73.5" style="enable-background:new 0 0 495 73.5;" xml:space="preserve"> <style type="text/css"> .st0{clip-path:url(#SVGID_2_);} .st1{clip-path:url(#SVGID_4_);fill:#DF0A15;} .st2{fill:#0060AB;} .st3{font-family:'Arial-Black';} .st4{font-size:64.1435px;} .st5{fill:#FFFFFF;} </style> <g> <defs> <rect id="SVGID_1_" x="-10.7" y="-14.3" width="516" height="99.3"></rect> </defs> <clipPath id="SVGID_2_"> <use xlink:href="#SVGID_1_" style="overflow:visible;"></use> </clipPath> <g class="st0"> <defs> <rect id="SVGID_3_" x="-23.1" y="-22" width="533.5" height="134.1"></rect> </defs> <clipPath id="SVGID_4_"> <use xlink:href="#SVGID_3_" style="overflow:visible;"></use> </clipPath> <path class="st1" d="M458.8,73.5c20.1,0,36.4-16.3,36.4-36.4c0-20.1-16.3-36.4-36.4-36.4c-20.1,0-36.4,16.3-36.4,36.4 C422.5,57.2,438.7,73.5,458.8,73.5"></path> </g> <g class="st0"> <path class="st2" d="M-0.2,14.1h38v9.8H14v7.3h22.1v9.4H14v9.1h24.5v10.4H-0.2V14.1z"></path> <path class="st2" d="M44.2,14.1h14.2v34.6h22.1v11.3H44.2V14.1z"></path> <path class="st2" d="M85.1,14.1h38v9.8H99.3v7.3h22.1v9.4H99.3v9.1h24.5v10.4H85.1V14.1z"></path> <path class="st2" d="M160.1,41.3l12.4,3.8c-0.8,3.5-2.2,6.4-3.9,8.7c-1.8,2.3-4,4.1-6.7,5.3c-2.7,1.2-6.1,1.8-10.2,1.8 c-5,0-9.1-0.7-12.2-2.2c-3.2-1.5-5.9-4-8.2-7.7c-2.3-3.7-3.4-8.3-3.4-14c0-7.6,2-13.4,6.1-17.5c4-4.1,9.8-6.1,17.1-6.1 c5.8,0,10.3,1.2,13.6,3.5c3.3,2.3,5.8,5.9,7.4,10.8l-12.5,2.8c-0.4-1.4-0.9-2.4-1.4-3.1c-0.8-1.1-1.8-1.9-2.9-2.5 c-1.1-0.6-2.4-0.9-3.9-0.9c-3.2,0-5.7,1.3-7.4,3.9c-1.3,1.9-1.9,4.9-1.9,9c0,5.1,0.8,8.6,2.3,10.5c1.5,1.9,3.7,2.8,6.5,2.8 c2.7,0,4.8-0.8,6.2-2.3C158.5,46.4,159.5,44.2,160.1,41.3z"></path> <path class="st2" d="M174.3,14.1h43.1v11.3H203v34.6h-14.2V25.5h-14.5V14.1z"></path> <path class="st2" d="M222.1,60.1V14.1h23.6c4.4,0,7.7,0.4,10.1,1.1c2.3,0.8,4.2,2.1,5.6,4.2c1.4,2,2.1,4.5,2.1,7.4 c0,2.5-0.5,4.7-1.6,6.6c-1.1,1.8-2.6,3.3-4.5,4.5c-1.2,0.7-2.9,1.3-5,1.8c1.7,0.6,2.9,1.1,3.7,1.7c0.5,0.4,1.3,1.2,2.3,2.4 c1,1.2,1.7,2.2,2,2.9l6.9,13.3h-16l-7.6-14c-1-1.8-1.8-3-2.6-3.5c-1-0.7-2.2-1.1-3.5-1.1h-1.3v18.6H222.1z M236.4,32.7h6 c0.6,0,1.9-0.2,3.8-0.6c0.9-0.2,1.7-0.7,2.3-1.4c0.6-0.8,0.9-1.7,0.9-2.7c0-1.5-0.5-2.6-1.4-3.4c-0.9-0.8-2.7-1.2-5.3-1.2h-6.2 V32.7z"></path> <path class="st2" d="M267.1,37.1c0-7.5,2.1-13.3,6.3-17.5c4.2-4.2,10-6.3,17.4-6.3c7.6,0,13.5,2.1,17.7,6.2 c4.1,4.1,6.2,9.9,6.2,17.2c0,5.4-0.9,9.8-2.7,13.2c-1.8,3.4-4.4,6.1-7.8,8c-3.4,1.9-7.7,2.9-12.8,2.9c-5.2,0-9.5-0.8-12.9-2.5 c-3.4-1.6-6.1-4.3-8.3-7.8C268.2,47,267.1,42.5,267.1,37.1z M281.3,37.2c0,4.6,0.9,8,2.6,10c1.7,2,4.1,3,7,3c3,0,5.4-1,7.1-3 c1.7-2,2.5-5.5,2.5-10.7c0-4.3-0.9-7.5-2.6-9.5c-1.7-2-4.1-3-7.1-3c-2.9,0-5.2,1-6.9,3C282.2,29.2,281.3,32.5,281.3,37.2z"></path> <path class="st2" d="M320.5,14.1h13.2L351,39.5V14.1h13.4v45.9H351l-17.2-25.2v25.2h-13.3V14.1z"></path> </g> <g class="st0"> <text transform="matrix(1 0 0 1 380.6407 53.6367)" class="st2 st3 st4">–</text> </g> <g class="st0"> <path class="st5" d="M437.6,14.1h43.1v11.3h-14.5v34.6h-14.2V25.5h-14.5V14.1z"></path> </g> </g> </svg>
